actions/24/help-donate.svg

<?xml version="1.0" encoding="UTF-8" standalone="no"?>
<svg
   width="24"
   height="24"
   viewBox="0 0 24 24"
   version="1.1"
   id="svg7"
   sodipodi:docname="help-donate.svg"
   inkscape:version="1.1.2 (0a00cf5339, 2022-02-04)"
   xmlns:inkscape="http://www.inkscape.org/namespaces/inkscape"
   xmlns:sodipodi="http://sodipodi.sourceforge.net/DTD/sodipodi-0.dtd"
   xmlns="http://www.w3.org/2000/svg"
   xmlns:svg="http://www.w3.org/2000/svg">
  <sodipodi:namedview
     id="namedview9"
     pagecolor="#000000"
     bordercolor="#666666"
     borderopacity="1.0"
     inkscape:pageshadow="2"
     inkscape:pageopacity="0"
     inkscape:pagecheckerboard="0"
     showgrid="false"
     inkscape:zoom="56.833333"
     inkscape:cx="11.991202"
     inkscape:cy="11.982405"
     inkscape:window-width="1596"
     inkscape:window-height="967"
     inkscape:window-x="0"
     inkscape:window-y="29"
     inkscape:window-maximized="1"
     inkscape:current-layer="svg7" />
  <defs
     id="defs3">
    <style
       id="current-color-scheme"
       type="text/css">
   .ColorScheme-Text { color:#eeeeec; } .ColorScheme-Highlight { color:#367bf0; } .ColorScheme-NeutralText { color:#ffcc44; } .ColorScheme-PositiveText { color:#3db47e; } .ColorScheme-NegativeText { color:#dd4747; }
  </style>
  </defs>
  <path
     style="fill:currentColor"
     class="ColorScheme-Text"
     d="M 6,0.0390625 V 1.171875 c -0.9772,0.1418 -1.8092906,0.3971281 -2.4628906,0.7988281 -1.0105,0.6149 -1.515625,1.5580782 -1.515625,2.8300781 C 2.0168844,6.9960812 3.579,7.7194656 6,8.3847656 V 13.376953 C 4.8273,13.277953 3.7551469,13.056266 2.6230469,12.572266 L 2,13.929688 c 0.5645,0.301 1.3272625,0.562156 2.2890625,0.785156 C 4.8332625,14.836844 5.4003,14.91475 6,14.96875 v 1.070312 h 3 v -1.117187 c 1.997,-0.285 3.979984,-1.203453 3.958984,-3.689453 C 12.888984,9.4037218 11.756,8.7248594 9,7.7558594 v -4.953125 c 0.9033,0.1207 2.001609,0.3722218 3.224609,0.9824218 L 13,2.2421875 C 12.449,1.9466875 11.168516,1.4757813 10.353516,1.3007812 9.9195152,1.2081812 9.467,1.1451625 9,1.1015625 v -1.0625 z m 0,2.7597656 v 3.6742613 0 C 5.9039567,6.4390868 5.8085075,6.7274954 5.7141638,6.6906409 4.6032203,6.2566613 3.6455488,5.6177994 3.6757812,4.6054688 3.6161813,3.5641688 4.6802,3.0146281 6,2.7988281 Z m 3.3104563,6.5647392 c 0.1052723,0.036866 -0.1015469,-0.038902 0,0 C 10.444578,9.7980409 11.317985,10.370016 11.296875,11.314453 11.257875,12.710453 10.165,13.197281 9,13.363281 V 9.5872892 Z"
     transform="translate(4,4)"
     id="path5"
     sodipodi:nodetypes="cccccccccccccccccccccccccscccscccc" />
</svg>

<svg xmlns="http://www.w3.org/2000/svg" width="24" height="24" viewBox="0 0 24 24">
 <defs>
  <style id="current-color-scheme" type="text/css">
   .ColorScheme-Text { color:#eeeeec; } .ColorScheme-Highlight { color:#367bf0; } .ColorScheme-NeutralText { color:#ffcc44; } .ColorScheme-PositiveText { color:#3db47e; } .ColorScheme-NegativeText { color:#dd4747; }
  </style>
 </defs>
 <path style="fill:currentColor" class="ColorScheme-Text" d="M 6 0.0390625 L 6 1.171875 C 5.0228 1.313675 4.1907094 1.5690031 3.5371094 1.9707031 C 2.5266094 2.5856031 2.0214844 3.5287813 2.0214844 4.8007812 C 2.0168844 6.9960812 3.579 7.7194656 6 8.3847656 L 6 13.376953 C 4.8273 13.277953 3.7551469 13.056266 2.6230469 12.572266 L 2 13.929688 C 2.5645 14.230688 3.3272625 14.491844 4.2890625 14.714844 C 4.8332625 14.836844 5.4003 14.91475 6 14.96875 L 6 16.039062 L 9 16.039062 L 9 14.921875 C 10.997 14.636875 12.979984 13.718422 12.958984 11.232422 C 12.888984 9.4037218 11.756 8.7248594 9 7.7558594 L 9 2.8027344 C 9.9033 2.9234344 11.001609 3.1749562 12.224609 3.7851562 L 13 2.2421875 C 12.449 1.9466875 11.168516 1.4757813 10.353516 1.3007812 C 9.9195152 1.2081812 9.467 1.1451625 9 1.1015625 L 9 0.0390625 L 6 0.0390625 z M 6 2.7988281 L 6 6.796875 C 4.773 6.362475 3.6429814 5.7037687 3.6757812 4.6054688 C 3.6161813 3.5641688 4.6802 3.0146281 6 2.7988281 z M 9 9.25 C 10.281 9.6986 11.319875 10.285453 11.296875 11.314453 C 11.257875 12.710453 10.165 13.197281 9 13.363281 L 9 9.25 z" transform="translate(4 4)"/>
</svg>
